X: 121
M: C|
L: 1/8
K: G
V: 1
g2ba g2fe | abag fd de/f/ | {a}g2fe {e}d2cB | cAdc BGGd |
gbab gafg | eaag fd de/f/ | gbfa egd=f | ecAd BGG || B/c/ |
dBdg dg dB/c/ | dBGB cA AB/c/ | dBGB dgdB | cABG FA AB/c/ |
dBdg dg dB/c/ | dBGB cA AB/c/ | dgfe dbag | faef defd |]
V: 2 clef=bass middle=d
g2d2 e2^c2 | d2^c2 d2=c2 | B2c2 B2G2 | d2d2 g2G2 |
g2f2 e2d2 | c2^c2 d2=c2 | B2d2 e2B2 | c2d2 g2G || z |
b2b2 g2g2 | G2G2 d2dc | B2c2 B2^c2 | d2A2 d2z2 |]


